X:1
T:Sag Harbor, 77.77
T:Sag Harbor, 77.77
T:Chauncey Marvin Cady (1824–1889)
T:Public Domain Courtesy of the Cyber Hymnal™
C:Chauncey Marvin Cady (1824–1889)
Z:Public Domain
Z:Courtesy of the Cyber Hymnal™
%%score ( 1 2 ) ( 3 4 )
L:1/8
Q:1/4=108
M:2/4
K:C
V:1 treble 
V:2 treble 
V:3 bass 
V:4 bass 
V:1
 C3 E | G3 E | (AG) (AB) | c3 z | [Gc]3 [Gc] | ([Gd][^Fc] [GB])[EA] | [DG]2 [D^F]2 | [DG]3 z | %8
 C3 E | G3 E | AG AB | c3 z | [Ge]3 [Ge] | (de f)[Ad] | [Gc]2 [FB]2 | [Ec]3 z |] %16
V:2
 C3 E | G3 E | AG AB | x4 | x4 | x4 | x4 | x4 | C3 E | G3 E | (AG) (AB) | c3 x | x4 | A3 x | x4 | %15
 x4 |] %16
V:3
 C,3 E, | G,3 E, | A,G, A,B, | C3 z | E3 [CE] | D3 [C,C] | [D,B,]2 [D,A,]2 | [G,B,]3 z | C,3 E, | %9
 G,3 E, | A,G, A,B, | C3 z | C3 [C,C] | ([F,C][E,^C] [D,D])[F,D] | [G,E]2 [G,D]2 | [C,C]3 z |] %16
V:4
 C,3 E, | G,3 E, | (A,G,) (A,B,) | C3 x | (C,E, G,) x | (B,A, G,) x | x4 | x4 | C,3 E, | G,3 E, | %10
 (A,G,) (A,B,) | C3 x | (CG, E,) x | x4 | x4 | x4 |] %16

